src/assets/images/logo.svg

<svg xmlns="http://www.w3.org/2000/svg" width="240" height="240" fill="none">
  <path fill="#000" d="M197 3.51775C187.605 5.52515 180.561 12.4491 174 19l-24 24c-21.186 21.1861-42.52 42.2396-63.2816 63.83-9.4033 9.779-20.3533 18.67-28.8959 29.209-3.6717 4.53-4.9269 10.34-8.4598 14.906-4.3646 5.641-13.826 7.603-20.3627 9.711-3.2128 1.036-6.8413 1.635-8.9144 4.572-3.3816 4.79-4.5767 12.245-6.4189 17.772-2.1047 6.314-3.9227 12.831-6.42364 19-1.77116 4.369-4.67351 8.189-5.13812 13C.912807 227.344 10.4547 237.874 23 236.906c5.2111-.402 9.2875-3.24 14-5.149 8.0905-3.277 16.7117-5.671 25-8.424 4.1167-1.367 10.3424-2.012 13.1566-5.612 5.8366-7.465 3.8839-20.588 11.1212-27.084 4.8444-4.348 11.7985-5.346 16.7222-9.745 30.055-26.853 57.496-57.388 86-85.892l27-27c5.064-5.064 11.106-9.966 15.034-16C246.524 28.2024 224.318-2.31923 197 3.51775z"/>
  <path fill="#383838" d="M123 92.7932c7.338 7.9368 15.351 15.3508 23 22.9998 12.571-8.855 23.129-22.129 34-32.9998C191.188 71.6048 209 58 214.5 44.5c-5.586-3.935-11.659-4.6946-16.5-9.5-2.023-2.0082-2.83-8-6-8-2.422 0-5.398 3.2913-7 4.8133-4.436 4.2132-8.674 8.654-13 12.9799l-31 31c-5.78 5.7796-11.308 12.2859-18 17z"/>
  <path fill="#FFC83D" d="M212 49.5c9.5-14 6.668-28.2079-9.5-28.5-7.167-.1295-13.5 7.2361-13.5 7.2361L200.5 39.5l11.5 10zM183.995 51.1759c-3.87 1.3615-7.18 6.009-9.995 8.8241-7.325 7.3243-14.82 14.5151-21.981 22-1.457 1.5234-8.435 10.3642-1.871 10.3642 4.159 0 8.214-5.7272 10.852-8.3642l19-19c2.674-2.6743 6.572-5.5391 8.248-8.9954 1.468-3.0246-.992-5.9755-4.253-4.8287zM122.02 96.1759c-3.516 1.2752-4.618 4.8431-2.643 7.8241 3.407 5.144 9.16 9.74 13.623 13.98 1.818 1.727 4.157 4.412 6.981 3.674 3.361-.877 4.952-4.724 3.357-7.654-2.983-5.478-9.742-10.777-14.338-14.9406-1.912-1.7324-4.189-3.8957-6.98-2.8835z"/>
  <path fill="#987D3A" d="M125 95l1 1-1-1zm1 1l1 1-1-1z"/>
  <path fill="#3E300F" d="M119 97l1 1-1-1z"/>
  <path fill="#987D3A" d="M127 97l1 1-1-1z"/>
  <path fill="#40320F" d="M118 98l1 1-1-1z"/>
  <path fill="#987D3A" d="M128 98l1 1-1-1z"/>
  <path fill="#3F320F" d="M117 99l1 1-1-1z"/>
  <path fill="#987D3A" d="M129 99l1 1-1-1z"/>
  <path fill="#3F320F" d="M116 100l1 1-1-1z"/>
  <path fill="#987D3A" d="M130 100l1 1-1-1z"/>
  <path fill="#7F6931" d="M116 101l1 1-1-1z"/>
  <path fill="#987D3A" d="M131 101l1 1-1-1z"/>
  <path fill="#383838" d="M115 103.346c-5.111 1.274-10.397 9.051-14 12.654-11.8251 11.825-27.6861 23.569-34.7338 39-3.0614 6.703.9992 10.381 5.7346 14.985 2.4747 2.405 5.2143 5.446 8.9992 4.821 7.534-1.245 14.8464-7.68 20-12.807L124 139c3.603-3.603 11.38-8.889 12.654-14 .606-2.431-1.232-4.339-2.717-6-4.002-4.476-8.461-8.935-12.937-12.937-1.661-1.485-3.569-3.323-6-2.717z"/>
  <path fill="#987D3A" d="M117 102l1 1-1-1zm15 0l1 1-1-1zm-14 1l1 1-1-1zm15 0l1 1-1-1zm-14 1l1 1-1-1zm15 0l1 1-1-1zm-14 1l1 1-1-1zm15 0l1 1-1-1zm-14 1l1 1-1-1zm15 0l1 1-1-1zm-14 1l1 1-1-1zm15 0l1 1-1-1zm-14 1l1 1-1-1z"/>
  <path fill="#997E3A" d="M138 108l1 1-1-1z"/>
  <path fill="#987D3A" d="M124 109l1 1-1-1z"/>
  <path fill="#A0833B" d="M139 109l1 1-1-1z"/>
  <path fill="#987D3A" d="M125 110l1 1-1-1z"/>
  <path fill="#9F833B" d="M140 110l1 1-1-1z"/>
  <path fill="#987D3A" d="M126 111l1 1-1-1z"/>
  <path fill="#9F833B" d="M141 111l1 1-1-1z"/>
  <path fill="#987D3A" d="M127 112l1 1-1-1z"/>
  <path fill="#9F833B" d="M142 112l1 1-1-1z"/>
  <path fill="#987D3A" d="M128 113l1 1-1-1z"/>
  <path fill="#A0833B" d="M143 113l1 1-1-1z"/>
  <path fill="#987D3A" d="M129 114l1 1-1-1z"/>
  <path fill="#A0833B" d="M144 114l1 1-1-1z"/>
  <path fill="#987D3A" d="M130 115l1 1-1-1zM131 116l1 1-1-1zm1 1l1 1-1-1zm1 1l1 1-1-1zm1 1l1 1-1-1zm1 1l1 1-1-1zm1 1l1 1-1-1zm1 1l1 1-1-1z"/>
  <path fill="#76612D" d="M138 123l1 1-1-1z"/>
  <path fill="#FFC83D" d="M63.0046 163.346c-11.6566 2.967 2.6803 19.915 8.9908 18.308 11.6566-2.967-2.6803-19.915-8.9908-18.308z"/>
  <path fill="#907738" d="M56 168l1 1-1-1z"/>
  <path fill="#555" d="M53 169l1 1-1-1z"/>
  <path fill="#CCC" d="M23 211c5.7777-4.07 13.1233-9.537 17-15.5 2.4389-3.752 2.0661-9.439 7.0046-11.173 4.9207-1.727 10.5731 5.162 8.0432 9.629-2.431 4.293-7.9343 3.786-11.5478 6.544-5.5092 4.205-10.5217 10.852-14.5 16.5 7.8368-1.157 15.4985-4.5 23-7 3.3059-1.102 7.741-1.844 10.49-4.086 2.7274-2.224 3.4502-6.735 4.51-9.914 1.103-3.309 3.3012-7.459 3.1644-11-.1949-5.042-8.75-13.028-13.1644-14.879-3.7994-1.593-8.4778 1.142-12 2.455-3.2652 1.216-7.8501 1.763-10.49 4.152-2.4984 2.261-3.0139 6.224-4.0254 9.272-2.6639 8.027-6.2337 16.649-7.4846 25z"/>
  <path fill="#555" d="M50 170l1 1-1-1zm-3 1l1 1-1-1z"/>
  <path fill="#565656" d="M44 172l1 1-1-1z"/>
  <path fill="#8C8C8C" d="M45 172l1 1-1-1z"/>
  <path fill="#565656" d="M41 173l1 1-1-1z"/>
  <path fill="#8C8C8C" d="M42 173l1 1-1-1z"/>
  <path fill="#565656" d="M38 174l1 1-1-1z"/>
  <path fill="#8C8C8C" d="M39 174l1 1-1-1z"/>
  <path fill="#555" d="M35 175l1 1-1-1z"/>
  <path fill="#4E4E4E" d="M33 176l1 1-1-1z"/>
  <path fill="#7B601D" d="M77 177l1 1-1-1zm-1 1l1 1-1-1z"/>
  <path fill="#595959" d="M32 179l1 1-1-1z"/>
  <path fill="#7B601D" d="M75 179l1 1-1-1zm-1 1l1 1-1-1zm-1 1l1 1-1-1z"/>
  <path fill="#5A5A5A" d="M31 182l1 1-1-1z"/>
  <path fill="#7B601D" d="M72 182l1 1-1-1z"/>
  <path fill="#7A652E" d="M71 183l1 1-1-1z"/>
  <path fill="#757575" d="M45.1481 185.029c-3.3852 1.975-2.7135 6.657-5.1481 9.471-5 6.5-13.9775 11.807-19.1451 18.955-2.1222 2.936-1.7336 8.322 3.125 6.887 2.8199-.833 5.0429-3.687 7.1096-5.628 4.9349-4.636 9.3763-9.976 14.4861-14.396 2.803-2.425 7.2741-2.089 9.2446-5.466 3.4864-5.974-3.5996-13.367-9.6721-9.823z"/>
  <path fill="#565656" d="M30 185l1 1-1-1z"/>
  <path fill="#7D7D7D" d="M70 185l1 1-1-1z"/>
  <path fill="#8C8C8C" d="M30 186l1 1-1-1z"/>
  <path fill="#454545" d="M70 186l1 1-1-1z"/>
  <path fill="#565656" d="M29 188l1 1-1-1z"/>
  <path fill="#7D7D7D" d="M69 188l1 1-1-1z"/>
  <path fill="#454545" d="M69 189l1 1-1-1z"/>
  <path fill="#555" d="M28 191l1 1-1-1z"/>
  <path fill="#7D7D7D" d="M68 191l1 1-1-1z"/>
  <path fill="#464646" d="M68 192l1 1-1-1z"/>
  <path fill="#525252" d="M27 194l1 1-1-1z"/>
  <path fill="#7D7D7D" d="M67 194l1 1-1-1z"/>
  <path fill="#B4B4B4" d="M27.3333 195.667c-.0555.055-.1111 1.111.3334.666.0555-.055.1111-1.111-.3334-.666z"/>
  <path fill="#464646" d="M67 195l1 1-1-1z"/>
  <path fill="#525252" d="M26 197l1 1-1-1z"/>
  <path fill="#7D7D7D" d="M66 197l1 1-1-1z"/>
  <path fill="#8A8A8A" d="M26 198l1 1-1-1z"/>
  <path fill="#464646" d="M66 198l1 1-1-1z"/>
  <path fill="#525252" d="M25 200l1 1-1-1z"/>
  <path fill="#7E7E7E" d="M65 200l1 1-1-1z"/>
  <path fill="#B4B4B4" d="M25.3333 201.667c-.0555.055-.1111 1.111.3334.666.0555-.055.1111-1.111-.3334-.666z"/>
  <path fill="#464646" d="M65 201l1 1-1-1z"/>
  <path fill="#505050" d="M24 203l1 1-1-1z"/>
  <path fill="#7E7E7E" d="M64 203l1 1-1-1z"/>
  <path fill="#878787" d="M24 204l1 1-1-1z"/>
  <path fill="#454545" d="M64 204l1 1-1-1z"/>
  <path fill="#505050" d="M23 206l1 1-1-1z"/>
  <path fill="#858585" d="M62 206l1 1-1-1z"/>
  <path fill="#3F3F3F" d="M63 206l1 1-1-1z"/>
  <path fill="#868686" d="M23 207l1 1-1-1z"/>
  <path fill="#848484" d="M59 207l1 1-1-1z"/>
  <path fill="#4B4B4B" d="M60 207l1 1-1-1z"/>
  <path fill="#838383" d="M56 208l1 1-1-1z"/>
  <path fill="#4C4C4C" d="M57 208l1 1-1-1z"/>
  <path fill="#4F4F4F" d="M22 209l1 1-1-1z"/>
  <path fill="gray" d="M53 209l1 1-1-1z"/>
  <path fill="#4A4A4A" d="M54 209l1 1-1-1z"/>
  <path fill="gray" d="M50 210l1 1-1-1z"/>
  <path fill="#494949" d="M51 210l1 1-1-1z"/>
  <path fill="gray" d="M47 211l1 1-1-1z"/>
  <path fill="#494949" d="M48 211l1 1-1-1z"/>
  <path fill="#7D7D7D" d="M44 212l1 1-1-1z"/>
  <path fill="#454545" d="M45 212l1 1-1-1z"/>
  <path fill="#7E7E7E" d="M41 213l1 1-1-1z"/>
  <path fill="#454545" d="M42 213l1 1-1-1z"/>
  <path fill="#7E7E7E" d="M38 214l1 1-1-1z"/>
  <path fill="#454545" d="M39 214l1 1-1-1z"/>
  <path fill="#7A7A7A" d="M35 215l1 1-1-1z"/>
  <path fill="#191919" d="M36.6667 215.333c-.4445.445.6111.389.6666.334.4445-.445-.6111-.389-.6666-.334z"/>
  <path fill="#7A7A7A" d="M32 216l1 1-1-1z"/>
  <path fill="#434343" d="M33 216l1 1-1-1zm-3 1l1 1-1-1z"/>
</svg>

<svg width="240" height="240" viewBox="0 0 240 240" fill="none" xmlns="http://www.w3.org/2000/svg">
<path d="M197 3.51775C187.605 5.52515 180.561 12.4491 174 19L150 43C128.814 64.1861 107.48 85.2396 86.7184 106.83C77.3151 116.609 66.3651 125.5 57.8225 136.039C54.1508 140.569 52.8956 146.379 49.3627 150.945C44.9981 156.586 35.5367 158.548 29 160.656C25.7872 161.692 22.1587 162.291 20.0856 165.228C16.704 170.018 15.5089 177.473 13.6667 183C11.562 189.314 9.744 195.831 7.24306 202C5.4719 206.369 2.56955 210.189 2.10494 215C0.912807 227.344 10.4547 237.874 23 236.906C28.2111 236.504 32.2875 233.666 37 231.757C45.0905 228.48 53.7117 226.086 62 223.333C66.1167 221.966 72.3424 221.321 75.1566 217.721C80.9932 210.256 79.0405 197.133 86.2778 190.637C91.1222 186.289 98.0763 185.291 103 180.892C133.055 154.039 160.496 123.504 189 95L216 68C221.064 62.936 227.106 58.034 231.034 52C246.524 28.2024 224.318 -2.31923 197 3.51775Z" fill="black"/>
<path d="M123 92.7932C130.338 100.73 138.351 108.144 146 115.793C158.571 106.938 169.129 93.664 180 82.7932C191.188 71.6048 209 58 214.5 44.5C208.914 40.565 202.841 39.8054 198 35C195.977 32.9918 195.17 27 192 27C189.578 27 186.602 30.2913 185 31.8133C180.564 36.0265 176.326 40.4673 172 44.7932L141 75.7932C135.22 81.5728 129.692 88.0791 123 92.7932Z" fill="#383838"/>
<path d="M212 49.5C221.5 35.5 218.668 21.2921 202.5 21C195.333 20.8705 189 28.2361 189 28.2361L200.5 39.5L212 49.5Z" fill="#FFC83D"/>
<path d="M183.995 51.1759C180.125 52.5374 176.815 57.1849 174 60C166.675 67.3243 159.18 74.5151 152.019 82C150.562 83.5234 143.584 92.3642 150.148 92.3642C154.307 92.3642 158.362 86.637 161 84L180 65C182.674 62.3257 186.572 59.4609 188.248 56.0046C189.716 52.98 187.256 50.0291 183.995 51.1759Z" fill="#FFC83D"/>
<path d="M122.02 96.1759C118.504 97.4511 117.402 101.019 119.377 104C122.784 109.144 128.537 113.74 133 117.98C134.818 119.707 137.157 122.392 139.981 121.654C143.342 120.777 144.933 116.93 143.338 114C140.355 108.522 133.596 103.223 129 99.0594C127.088 97.327 124.811 95.1637 122.02 96.1759Z" fill="#FFC83D"/>
<path d="M125 95L126 96L125 95ZM126 96L127 97L126 96Z" fill="#987D3A"/>
<path d="M119 97L120 98L119 97Z" fill="#3E300F"/>
<path d="M127 97L128 98L127 97Z" fill="#987D3A"/>
<path d="M118 98L119 99L118 98Z" fill="#40320F"/>
<path d="M128 98L129 99L128 98Z" fill="#987D3A"/>
<path d="M117 99L118 100L117 99Z" fill="#3F320F"/>
<path d="M129 99L130 100L129 99Z" fill="#987D3A"/>
<path d="M116 100L117 101L116 100Z" fill="#3F320F"/>
<path d="M130 100L131 101L130 100Z" fill="#987D3A"/>
<path d="M116 101L117 102L116 101Z" fill="#7F6931"/>
<path d="M131 101L132 102L131 101Z" fill="#987D3A"/>
<path d="M115 103.346C109.889 104.62 104.603 112.397 101 116C89.1749 127.825 73.3139 139.569 66.2662 155C63.2048 161.703 67.2654 165.381 72.0008 169.985C74.4755 172.39 77.2151 175.431 81 174.806C88.534 173.561 95.8464 167.126 101 161.999L124 139C127.603 135.397 135.38 130.111 136.654 125C137.26 122.569 135.422 120.661 133.937 119C129.935 114.524 125.476 110.065 121 106.063C119.339 104.578 117.431 102.74 115 103.346Z" fill="#383838"/>
<path d="M117 102L118 103L117 102ZM132 102L133 103L132 102ZM118 103L119 104L118 103ZM133 103L134 104L133 103ZM119 104L120 105L119 104ZM134 104L135 105L134 104ZM120 105L121 106L120 105ZM135 105L136 106L135 105ZM121 106L122 107L121 106ZM136 106L137 107L136 106ZM122 107L123 108L122 107ZM137 107L138 108L137 107ZM123 108L124 109L123 108Z" fill="#987D3A"/>
<path d="M138 108L139 109L138 108Z" fill="#997E3A"/>
<path d="M124 109L125 110L124 109Z" fill="#987D3A"/>
<path d="M139 109L140 110L139 109Z" fill="#A0833B"/>
<path d="M125 110L126 111L125 110Z" fill="#987D3A"/>
<path d="M140 110L141 111L140 110Z" fill="#9F833B"/>
<path d="M126 111L127 112L126 111Z" fill="#987D3A"/>
<path d="M141 111L142 112L141 111Z" fill="#9F833B"/>
<path d="M127 112L128 113L127 112Z" fill="#987D3A"/>
<path d="M142 112L143 113L142 112Z" fill="#9F833B"/>
<path d="M128 113L129 114L128 113Z" fill="#987D3A"/>
<path d="M143 113L144 114L143 113Z" fill="#A0833B"/>
<path d="M129 114L130 115L129 114Z" fill="#987D3A"/>
<path d="M144 114L145 115L144 114Z" fill="#A0833B"/>
<path d="M130 115L131 116L130 115Z" fill="#987D3A"/>
<path d="M131 116L132 117L131 116ZM132 117L133 118L132 117ZM133 118L134 119L133 118ZM134 119L135 120L134 119ZM135 120L136 121L135 120ZM136 121L137 122L136 121ZM137 122L138 123L137 122Z" fill="#987D3A"/>
<path d="M138 123L139 124L138 123Z" fill="#76612D"/>
<path d="M63.0046 163.346C51.348 166.313 65.6849 183.261 71.9954 181.654C83.652 178.687 69.3151 161.739 63.0046 163.346Z" fill="#FFC83D"/>
<path d="M56 168L57 169L56 168Z" fill="#907738"/>
<path d="M53 169L54 170L53 169Z" fill="#555555"/>
<path d="M23 211C28.7777 206.93 36.1233 201.463 40 195.5C42.4389 191.748 42.0661 186.061 47.0046 184.327C51.9253 182.6 57.5777 189.489 55.0478 193.956C52.6168 198.249 47.1135 197.742 43.5 200.5C37.9908 204.705 32.9783 211.352 29 217C36.8368 215.843 44.4985 212.5 52 210C55.3059 208.898 59.741 208.156 62.49 205.914C65.2174 203.69 65.9402 199.179 67 196C68.103 192.691 70.3012 188.541 70.1644 185C69.9695 179.958 61.4144 171.972 57 170.121C53.2006 168.528 48.5222 171.263 45 172.576C41.7348 173.792 37.1499 174.339 34.51 176.728C32.0116 178.989 31.4961 182.952 30.4846 186C27.8207 194.027 24.2509 202.649 23 211Z" fill="#CCCCCC"/>
<path d="M50 170L51 171L50 170ZM47 171L48 172L47 171Z" fill="#555555"/>
<path d="M44 172L45 173L44 172Z" fill="#565656"/>
<path d="M45 172L46 173L45 172Z" fill="#8C8C8C"/>
<path d="M41 173L42 174L41 173Z" fill="#565656"/>
<path d="M42 173L43 174L42 173Z" fill="#8C8C8C"/>
<path d="M38 174L39 175L38 174Z" fill="#565656"/>
<path d="M39 174L40 175L39 174Z" fill="#8C8C8C"/>
<path d="M35 175L36 176L35 175Z" fill="#555555"/>
<path d="M33 176L34 177L33 176Z" fill="#4E4E4E"/>
<path d="M77 177L78 178L77 177ZM76 178L77 179L76 178Z" fill="#7B601D"/>
<path d="M32 179L33 180L32 179Z" fill="#595959"/>
<path d="M75 179L76 180L75 179ZM74 180L75 181L74 180ZM73 181L74 182L73 181Z" fill="#7B601D"/>
<path d="M31 182L32 183L31 182Z" fill="#5A5A5A"/>
<path d="M72 182L73 183L72 182Z" fill="#7B601D"/>
<path d="M71 183L72 184L71 183Z" fill="#7A652E"/>
<path d="M45.1481 185.029C41.7629 187.004 42.4346 191.686 40 194.5C35 201 26.0225 206.307 20.8549 213.455C18.7327 216.391 19.1213 221.777 23.9799 220.342C26.7998 219.509 29.0228 216.655 31.0895 214.714C36.0244 210.078 40.4658 204.738 45.5756 200.318C48.3786 197.893 52.8497 198.229 54.8202 194.852C58.3066 188.878 51.2206 181.485 45.1481 185.029Z" fill="#757575"/>
<path d="M30 185L31 186L30 185Z" fill="#565656"/>
<path d="M70 185L71 186L70 185Z" fill="#7D7D7D"/>
<path d="M30 186L31 187L30 186Z" fill="#8C8C8C"/>
<path d="M70 186L71 187L70 186Z" fill="#454545"/>
<path d="M29 188L30 189L29 188Z" fill="#565656"/>
<path d="M69 188L70 189L69 188Z" fill="#7D7D7D"/>
<path d="M69 189L70 190L69 189Z" fill="#454545"/>
<path d="M28 191L29 192L28 191Z" fill="#555555"/>
<path d="M68 191L69 192L68 191Z" fill="#7D7D7D"/>
<path d="M68 192L69 193L68 192Z" fill="#464646"/>
<path d="M27 194L28 195L27 194Z" fill="#525252"/>
<path d="M67 194L68 195L67 194Z" fill="#7D7D7D"/>
<path d="M27.3333 195.667C27.2778 195.722 27.2222 196.778 27.6667 196.333C27.7222 196.278 27.7778 195.222 27.3333 195.667Z" fill="#B4B4B4"/>
<path d="M67 195L68 196L67 195Z" fill="#464646"/>
<path d="M26 197L27 198L26 197Z" fill="#525252"/>
<path d="M66 197L67 198L66 197Z" fill="#7D7D7D"/>
<path d="M26 198L27 199L26 198Z" fill="#8A8A8A"/>
<path d="M66 198L67 199L66 198Z" fill="#464646"/>
<path d="M25 200L26 201L25 200Z" fill="#525252"/>
<path d="M65 200L66 201L65 200Z" fill="#7E7E7E"/>
<path d="M25.3333 201.667C25.2778 201.722 25.2222 202.778 25.6667 202.333C25.7222 202.278 25.7778 201.222 25.3333 201.667Z" fill="#B4B4B4"/>
<path d="M65 201L66 202L65 201Z" fill="#464646"/>
<path d="M24 203L25 204L24 203Z" fill="#505050"/>
<path d="M64 203L65 204L64 203Z" fill="#7E7E7E"/>
<path d="M24 204L25 205L24 204Z" fill="#878787"/>
<path d="M64 204L65 205L64 204Z" fill="#454545"/>
<path d="M23 206L24 207L23 206Z" fill="#505050"/>
<path d="M62 206L63 207L62 206Z" fill="#858585"/>
<path d="M63 206L64 207L63 206Z" fill="#3F3F3F"/>
<path d="M23 207L24 208L23 207Z" fill="#868686"/>
<path d="M59 207L60 208L59 207Z" fill="#848484"/>
<path d="M60 207L61 208L60 207Z" fill="#4B4B4B"/>
<path d="M56 208L57 209L56 208Z" fill="#838383"/>
<path d="M57 208L58 209L57 208Z" fill="#4C4C4C"/>
<path d="M22 209L23 210L22 209Z" fill="#4F4F4F"/>
<path d="M53 209L54 210L53 209Z" fill="#808080"/>
<path d="M54 209L55 210L54 209Z" fill="#4A4A4A"/>
<path d="M50 210L51 211L50 210Z" fill="#808080"/>
<path d="M51 210L52 211L51 210Z" fill="#494949"/>
<path d="M47 211L48 212L47 211Z" fill="#808080"/>
<path d="M48 211L49 212L48 211Z" fill="#494949"/>
<path d="M44 212L45 213L44 212Z" fill="#7D7D7D"/>
<path d="M45 212L46 213L45 212Z" fill="#454545"/>
<path d="M41 213L42 214L41 213Z" fill="#7E7E7E"/>
<path d="M42 213L43 214L42 213Z" fill="#454545"/>
<path d="M38 214L39 215L38 214Z" fill="#7E7E7E"/>
<path d="M39 214L40 215L39 214Z" fill="#454545"/>
<path d="M35 215L36 216L35 215Z" fill="#7A7A7A"/>
<path d="M36.6667 215.333C36.2222 215.778 37.2778 215.722 37.3333 215.667C37.7778 215.222 36.7222 215.278 36.6667 215.333Z" fill="#191919"/>
<path d="M32 216L33 217L32 216Z" fill="#7A7A7A"/>
<path d="M33 216L34 217L33 216ZM30 217L31 218L30 217Z" fill="#434343"/>
</svg>
